X:1
T:Title
%%score { ( 1 3 ) | ( 2 4 ) }
L:1/8
Q:1/4=75
M:6/8
K:Eb
V:1 treble nm="Grand Piano"
V:3 treble 
V:2 bass 
V:4 bass 
V:1
 [GB]2 [_G=A] [Gc]2 [=GB] | ed[Gc] [_Gc]2 [B,=GB] | .[DAB]2 [DAB] .[EGe]2 [Gd] | [Gc]G=A B3 | %4
w: S.~M.~Bixby * * *||||
 .[GB]3 z3 | .[DB]2 [B,DF] [CEA]2 [B,EG] | [B,E]-[B,EA]B c2 B | .e3 z3 | %8
w: ||||
 [B,EG]2 [A,DF] [G,E]2 [G,_DE] | .c3 .[FA]3 | B=Ac z De |[M:7/4] [B,EG]2 [A,DF] [G,E]3 z2 z2 z4 | %12
w: ||||
[M:3/4] [A,CE]3 [G,B,E]3 |] %13
w: |
V:2
 [E,B,]2 [E,C] [E,=A,]2 [E,B,] | [E,B,]2 [E,B,] [E,=A,]2 E, | z[K:treble] c[K:bass]B,, z C[D,=B,] | %3
 [E,C]2[K:treble] [F,EF] [B,DF]3 | .[E,E]2 [E,B,E] [E,A,E]2 [E,G,E] | z AB,, E,2 E, | %6
 E,F,[G,B,E] [A,E]2 [G,B,E] | [A,E]C[B,,F,B,] [E,B,]3 | E,2 B,, C,2 B,, | .A,3 z3 | %10
 E-[_G,CE][G,=A,E] [=G,B,E][F,_A,][E,G,E] |[M:7/4] B,,2 B,, E,3 z2 z2 z4 |[M:3/4] A,,3 E,3 |] %13
V:3
 x6 | .G3 z3 | x6 | x6 | z B,G c2 B | x6 | .G3 z3 | z A[Ad] [Ge]3 | x6 | CE[=EB] z B,G | z3 .B3 | %11
[M:7/4] x14 |[M:3/4] x6 |] %13
V:4
 x6 | x6 | .B,,3[K:treble][K:bass] .C,3 | x2[K:treble] x4 | x6 | .[B,,F,]3 z3 | x6 | .F,3 z3 | x6 | %9
 A,,C,[C,G,] [F,A,]D,[E,B,=E] | .[G,B,]3 z3 |[M:7/4] x14 |[M:3/4] x6 |] %13

